X: 1
T: Polska fr\aan Boda
O: Boda, Dalarna, Sweden
Z: 2009 John Chambers <jc:trillian.mit.edu>
S: handwritten MS of unknown origin
M: 3/4
L: 1/16
%%slurgraces
K: D
(g2 \
| f2)(af d4) (d4 | {f}f2)(af d4) (d4 | A3)(c e3c) e3f | "dr"g4 e6 (f2 \
| g3)(e c4) c3c | (e2c2) (A3B) A3G | (F2A2) (d3c) d3e | "dr"f4 d6 :|
|: (A2 \
| d3)(f a4) {b}Ta3f | (Tgfga) b7 (a | ga)gf (e3f) e3d | (c2e2) Ta7 (f \
| {a}g3)(e c4) c3c | (e2c2) (A3B) A3G | (F2A2) (d3c) d3e | "dr"f4 d6 :|
